web/packages/design/src/ResourceIcon/assets/mariadb-light.svg

<svg width="72" height="72" viewBox="0 0 72 72" fill="none" xmlns="http://www.w3.org/2000/svg">
<path fill-rule="evenodd" clip-rule="evenodd" d="M70.424 11.865C69.3188 11.9015 69.6386 12.3994 67.2459 12.9905C64.829 13.5857 61.906 13.2213 59.3068 14.3144C52.5053 17.1646 51.4041 28.1846 43.303 32.4477C37.9913 35.4477 32.5744 36.1359 27.7324 37.6541C23.8458 39.2128 21.4288 40.2452 18.5787 42.7026C16.3682 44.6095 15.8297 46.4597 13.518 48.8523C11.1739 52.0385 2.28742 49.2086 0 53.2045C1.20646 53.9859 1.90278 54.2004 4.02016 53.9211C3.58291 54.751 0.797547 55.8441 1.30361 57.0668C1.30361 57.0668 8.03631 58.2935 13.7123 54.8684C16.3601 53.7915 18.8418 51.5122 22.9551 50.9657C28.283 50.2572 34.2869 52.0831 40.7281 52.5972C39.3962 55.2288 38.0237 56.7834 36.5541 58.9534C36.1007 59.4433 36.9428 59.8765 38.5055 59.5809C41.3152 58.8846 43.3516 58.1316 45.3718 56.7348C48.0074 54.917 49.141 53.2531 51.3636 50.6175C53.2948 53.7146 60.1044 54.3948 61.5011 51.7187C58.902 50.6175 58.3473 44.8888 59.238 42.4152C60.2906 40.0589 61.0477 36.727 61.8979 33.6299C62.663 30.8405 63.1367 26.5855 64.0517 24.4074C65.1448 21.6989 67.2702 20.8528 68.8654 19.4155C70.4605 17.9783 72.0475 16.7799 71.9989 13.4925C71.9827 12.4237 71.4321 11.8326 70.424 11.865Z" fill="#1F305F"/>
<path d="M2.03204 56.4998C6.20607 56.6253 7.33966 56.516 10.6392 55.0828C13.4448 53.8642 17.1978 50.5808 20.5135 49.5201C25.3798 47.9574 30.5984 48.1922 35.7765 48.8035C37.5092 49.01 39.2501 49.2975 40.493 49.1638C42.4323 47.9736 42.5254 44.7429 43.7278 44.4838C43.3998 50.7347 40.7197 54.7346 38.0396 58.3621C43.6873 57.3662 47.4605 53.8399 49.7439 49.4756C50.4362 48.1517 51.5859 45.9858 52.1123 44.4959C52.5292 45.4837 51.5698 46.1113 52.0191 47.1882C55.6547 44.1882 57.3713 40.7713 58.8449 35.7673C60.5534 29.9779 62.3064 25.0023 63.4076 23.2897C64.4805 21.6177 66.1525 20.5853 67.6788 19.5165C69.4116 18.2979 70.9622 17.0307 71.2294 14.7109C69.3994 14.5409 68.9784 14.1198 68.7071 13.1968C67.7922 13.7109 66.9501 13.8243 65.9987 13.8526C65.1728 13.8769 64.2659 13.8405 63.1566 13.9539C53.9948 14.8931 53.5697 23.8484 46.9099 30.4232C46.4808 30.8402 45.748 31.4556 45.2621 31.82C43.2055 33.3544 41.0031 34.1965 38.6833 35.0831C34.9263 36.5163 31.3636 36.9333 27.8414 38.1721C25.2544 39.079 22.8495 40.1195 20.724 41.5729C20.1937 41.9372 19.4731 42.585 19.0115 42.9615C17.7646 43.9817 16.9468 45.1113 16.1533 46.2773C15.3355 47.4756 14.5501 48.7104 13.3476 49.8885C11.4003 51.7994 4.12917 50.4472 1.56645 52.2205C1.28306 52.4189 1.05228 52.6537 0.898438 52.9371C2.29518 53.5727 3.23038 53.184 4.83764 53.3581C5.03602 54.8925 1.50978 55.7994 2.03204 56.4998Z" fill="#C0765A"/>
<path fill-rule="evenodd" clip-rule="evenodd" d="M60.1045 17.7432C61.4 18.8687 64.1206 17.9659 63.6348 15.7271C61.6186 15.557 60.4527 16.2412 60.1045 17.7432Z" fill="#1F305F"/>
<path d="M69.1444 15.1239C68.8003 15.8486 68.1404 16.7798 68.1404 18.6218C68.1363 18.9376 67.9015 19.1562 67.8975 18.6664C67.9137 16.8648 68.3914 16.0875 68.8974 15.0672C69.1282 14.6502 69.2699 14.8203 69.1444 15.1239Z" fill="#1F305F"/>
<path d="M68.7968 14.8527C68.3879 15.541 67.4082 16.8 67.2503 18.6381C67.2219 18.9539 66.9628 19.1482 67.0033 18.6624C67.1814 16.8729 67.9628 15.7515 68.5579 14.7758C68.8251 14.379 68.9506 14.5612 68.7968 14.8527Z" fill="#1F305F"/>
<path d="M68.481 14.4921C68.0154 15.1439 66.5093 16.6581 66.1936 18.4718C66.1369 18.7835 65.8656 18.9536 65.9466 18.4759C66.2745 16.7067 67.5741 15.314 68.2461 14.395C68.5457 14.0184 68.6591 14.2128 68.481 14.4921Z" fill="#1F305F"/>
<path d="M68.197 14.0879C67.6464 14.6709 65.8489 16.598 65.2821 18.351C65.1809 18.6506 64.8894 18.7842 65.0352 18.3186C65.606 16.6101 67.1809 14.7721 67.9784 13.9583C68.3307 13.6304 68.4116 13.8409 68.197 14.0879Z" fill="#1F305F"/>
</svg>

<svg xmlns="http://www.w3.org/2000/svg" width="72" height="72" fill="none" viewBox="0 0 72 72"><path fill="#1f305f" fill-rule="evenodd" d="M70.424 11.865c-1.105.037-.785.534-3.178 1.126-2.417.595-5.34.23-7.94 1.323-6.8 2.85-7.902 13.87-16.003 18.134-5.312 3-10.729 3.688-15.57 5.206-3.887 1.559-6.304 2.591-9.154 5.049-2.21 1.906-2.75 3.757-5.061 6.15-2.344 3.185-11.23.356-13.518 4.352 1.206.78 1.903.995 4.02.716-.437.83-3.222 1.923-2.716 3.146 0 0 6.732 1.227 12.408-2.199 2.648-1.077 5.13-3.356 9.243-3.902 5.328-.709 11.332 1.117 17.773 1.631-1.332 2.632-2.704 4.186-4.174 6.356-.453.49.389.923 1.951.628 2.81-.696 4.847-1.45 6.867-2.846 2.635-1.818 3.769-3.482 5.992-6.117 1.93 3.097 8.74 3.777 10.137 1.1-2.599-1.1-3.154-6.83-2.263-9.303 1.053-2.356 1.81-5.688 2.66-8.785.765-2.79 1.239-7.045 2.154-9.223 1.093-2.708 3.218-3.554 4.813-4.991 1.596-1.438 3.183-2.636 3.134-5.924-.016-1.068-.567-1.66-1.575-1.627" clip-rule="evenodd"/><path fill="#c0765a" d="M2.032 56.5c4.174.125 5.308.016 8.607-1.417 2.806-1.219 6.559-4.502 9.875-5.563 4.866-1.563 10.084-1.328 15.263-.717 1.732.207 3.473.495 4.716.36 1.94-1.19 2.032-4.42 3.235-4.68-.328 6.252-3.008 10.252-5.688 13.88 5.647-.997 9.42-4.523 11.704-8.887.692-1.324 1.842-3.49 2.368-4.98.417.988-.542 1.615-.093 2.692 3.636-3 5.352-6.417 6.826-11.42 1.708-5.79 3.461-10.766 4.563-12.478 1.073-1.672 2.745-2.705 4.27-3.773 1.734-1.22 3.284-2.486 3.551-4.806-1.83-.17-2.25-.591-2.522-1.514-.915.514-1.757.627-2.708.656-.826.024-1.733-.012-2.842.1-9.162.94-9.587 9.895-16.247 16.47a20 20 0 0 1-1.648 1.397c-2.056 1.534-4.259 2.377-6.579 3.263-3.757 1.433-7.32 1.85-10.842 3.09-2.587.906-4.992 1.947-7.117 3.4-.53.364-1.25 1.012-1.712 1.389-1.247 1.02-2.065 2.15-2.859 3.315-.817 1.199-1.603 2.433-2.805 3.611-1.948 1.911-9.219.56-11.782 2.333a2.1 2.1 0 0 0-.668.716c1.397.636 2.332.247 3.94.421.198 1.535-3.328 2.441-2.806 3.142"/><path fill="#1f305f" fill-rule="evenodd" d="M60.105 17.743c1.295 1.126 4.016.223 3.53-2.016-2.016-.17-3.182.514-3.53 2.016" clip-rule="evenodd"/><path fill="#1f305f" d="M69.144 15.124c-.344.725-1.004 1.656-1.004 3.498-.004.316-.239.534-.243.044.017-1.801.494-2.579 1-3.599.231-.417.373-.247.247.057"/><path fill="#1f305f" d="M68.797 14.853c-.41.688-1.389 1.947-1.547 3.785-.028.316-.287.51-.247.024.178-1.79.96-2.91 1.555-3.886.267-.397.393-.215.239.077m-.316-.361c-.466.652-1.972 2.166-2.287 3.98-.057.311-.328.482-.247.004.328-1.77 1.627-3.162 2.3-4.081.299-.377.412-.182.234.097m-.284-.404c-.55.583-2.348 2.51-2.915 4.263-.101.3-.393.433-.247-.032.571-1.709 2.146-3.547 2.943-4.36.353-.329.434-.118.219.129"/></svg>
